<?xml version="1.0" encoding="UTF-8"?>
<map version="1.10" tiledversion="1.11.2" orientation="orthogonal" renderorder="right-down" width="20" height="50" tilewidth="16" tileheight="16" infinite="0" nextlayerid="3" nextobjectid="34">
 <editorsettings>
  <export target="Map2.lua" format="lua"/>
 </editorsettings>
 <tileset firstgid="1" source="Tileset16.tsx"/>
 <tileset firstgid="49" source="gold.tsx"/>
 <tileset firstgid="54" source="blue.tsx"/>
 <layer id="1" name="Tile Layer 1" width="20" height="50">
  <data encoding="csv">
3,0,0,0,0,0,0,0,0,0,0,0,0,0,0,0,0,0,0,0,
11,0,0,0,0,0,0,0,0,0,0,0,0,0,0,0,0,0,0,0,
11,0,0,0,0,0,0,0,0,0,0,0,0,0,0,0,0,0,0,0,
11,0,0,0,0,0,0,0,0,0,30,31,31,31,31,31,31,31,31,32,
11,0,0,0,0,0,0,0,0,0,33,34,34,34,34,34,34,34,29,40,
11,0,0,0,0,0,0,0,0,0,33,34,34,34,44,34,34,34,34,40,
11,0,0,0,0,0,0,0,0,0,33,34,34,34,34,34,34,34,34,40,
11,0,0,0,0,0,0,0,0,0,33,34,34,34,34,34,34,34,34,40,
11,0,0,0,0,0,0,0,0,0,33,34,34,34,34,34,34,34,34,40,
11,0,0,0,0,0,0,0,0,0,33,34,34,34,34,34,34,34,34,40,
11,0,0,0,0,0,0,0,0,0,33,34,34,34,34,34,34,34,34,40,
11,0,0,0,0,0,0,0,0,0,33,34,34,34,34,37,34,34,34,40,
11,0,0,0,0,0,0,0,0,0,33,34,34,34,34,34,34,34,34,40,
11,0,0,0,0,0,0,0,0,0,33,37,34,34,34,34,34,34,34,40,
11,0,0,0,0,0,0,0,0,0,33,34,34,34,36,34,34,34,34,40,
11,0,0,0,0,0,0,0,0,0,38,32,34,34,29,34,34,34,44,40,
11,0,0,0,0,0,0,0,0,0,38,34,34,34,34,34,34,34,34,40,
11,0,0,0,0,0,0,0,0,0,38,34,30,30,31,31,32,34,34,40,
11,0,0,0,0,0,0,0,0,0,38,34,38,28,34,29,29,34,34,40,
11,0,0,1,2,2,3,0,0,0,38,34,44,34,34,34,29,37,30,40,
11,0,0,0,0,0,0,0,0,0,38,34,34,34,34,34,34,34,34,40,
11,0,0,0,0,0,0,0,0,0,38,34,34,34,34,30,31,32,34,40,
11,0,0,0,0,0,0,0,0,0,38,34,34,31,34,34,34,34,34,40,
11,0,0,0,0,0,0,0,0,0,38,32,34,34,34,34,34,34,34,40,
11,0,0,0,0,0,0,0,0,0,38,34,34,34,34,34,34,34,34,40,
11,0,0,0,0,0,0,0,0,0,38,34,30,32,34,34,34,34,34,40,
11,0,0,0,0,0,0,0,0,0,38,34,34,34,31,34,34,34,34,40,
11,0,0,0,0,0,0,0,0,0,38,44,34,34,34,34,34,34,34,40,
11,0,0,0,0,0,0,0,0,0,38,34,34,34,30,32,34,34,34,40,
11,0,0,0,0,0,0,0,0,0,38,34,34,34,34,34,34,34,34,40,
11,0,0,0,0,0,0,0,0,0,38,34,34,34,34,34,30,32,34,40,
11,0,0,0,0,0,0,0,0,0,33,34,34,34,34,34,34,34,34,40,
21,2,3,0,0,0,0,0,0,0,33,34,34,34,34,30,32,34,34,40,
11,0,0,0,0,0,0,0,0,0,33,34,34,34,34,34,34,34,34,40,
11,0,0,0,0,0,0,0,0,0,33,34,30,31,32,28,34,34,34,40,
11,0,0,0,0,0,0,0,0,2,2,34,34,34,34,34,34,34,34,40,
11,0,0,0,0,0,0,0,0,0,33,34,34,34,34,34,34,34,34,40,
11,0,0,0,0,1,2,2,3,0,38,34,34,34,34,34,34,34,34,40,
11,0,0,0,0,0,0,0,0,0,38,34,34,34,34,34,34,34,34,40,
11,0,1,3,0,0,0,0,0,0,38,34,34,34,34,34,34,34,34,40,
11,0,0,0,0,0,0,0,0,0,38,34,34,34,34,34,34,34,34,40,
11,0,0,0,2,3,0,0,0,0,38,34,34,34,34,34,34,34,34,40,
11,0,0,0,9,11,0,0,1,2,38,34,44,34,34,34,34,34,34,40,
11,0,0,0,9,11,0,1,10,12,38,34,34,34,34,34,34,44,34,40,
10,2,2,2,2,2,2,2,2,2,38,34,34,34,34,34,34,34,34,40,
10,10,10,10,10,10,10,10,10,10,38,34,34,34,34,34,34,34,34,40,
10,10,10,10,10,10,10,10,10,10,38,34,34,34,34,34,34,34,34,40,
10,10,10,10,10,10,10,10,10,10,38,34,34,34,34,34,34,34,34,40,
10,10,10,10,10,10,10,10,10,10,38,34,34,34,34,34,34,34,34,40,
10,10,10,10,10,10,10,10,10,10,38,34,34,34,34,34,34,34,34,40
</data>
 </layer>
 <objectgroup id="2" name="Object Layer 1">
  <object id="11" template="Coin.tx" x="81.3333" y="654.667"/>
  <object id="15" name="Coin" gid="49" x="35.3333" y="620" width="16" height="16"/>
  <object id="16" name="Coin" gid="49" x="81.3333" y="588.667" width="16" height="16"/>
  <object id="17" name="Coin" gid="49" x="100" y="587.333" width="16" height="16"/>
  <object id="18" name="Coin" gid="49" x="118" y="586.667" width="16" height="16"/>
  <object id="19" name="Coin" gid="49" x="200" y="540" width="16" height="16"/>
  <object id="20" name="Coin" gid="49" x="266.667" y="476.667" width="16" height="16"/>
  <object id="21" name="Coin" gid="49" x="198.667" y="396.667" width="16" height="16"/>
  <object id="22" name="Gem" gid="54" x="209.333" y="267.333" width="16" height="16"/>
  <object id="23" name="Coin" gid="49" x="256.667" y="334" width="16" height="16"/>
  <object id="24" name="Coin" gid="49" x="228.667" y="270.667" width="16" height="16"/>
  <object id="25" name="Coin" gid="49" x="111.333" y="270.667" width="16" height="16"/>
  <object id="26" name="Coin" gid="49" x="82" y="303.333" width="16" height="16"/>
  <object id="27" name="Coin" gid="49" x="16" y="337.333" width="16" height="16"/>
  <object id="28" name="Coin" gid="49" x="15.3333" y="356.667" width="16" height="16"/>
  <object id="29" name="Coin" gid="49" x="16" y="380.667" width="16" height="16"/>
  <object id="30" name="Gem" gid="54" x="17.3333" y="508" width="16" height="16"/>
  <object id="31" name="Gem" gid="54" x="64.6667" y="302.667" width="16" height="16"/>
 </objectgroup>
</map>
